assets/svg/1F627.svg

<svg xmlns="http://www.w3.org/2000/svg" viewBox="0 0 64 64" enable-background="new 0 0 64 64"><path fill="#fbb041" d="m64.12 32.06c0 17.707-14.355 32.06-32.07 32.06-17.71 0-32.06-14.356-32.06-32.06 0-17.711 14.348-32.06 32.06-32.06 17.711 0 32.07 14.354 32.07 32.06"/><g fill="#fff"><path d="m27.437 23.23c0 5.395-2.915 9.759-6.515 9.759-3.604 0-6.519-4.364-6.519-9.759 0-5.39 2.915-9.758 6.519-9.758 3.599 0 6.515 4.368 6.515 9.758"/><path d="m49.49 23.23c0 5.395-2.915 9.759-6.515 9.759s-6.519-4.364-6.519-9.759c0-5.39 2.919-9.758 6.519-9.758s6.515 4.368 6.515 9.758"/></g><g fill="#25333a"><ellipse cx="20.92" cy="23.23" rx="4.216" ry="5.114"/><ellipse cx="42.969" cy="23.23" rx="4.218" ry="5.114"/></g><g opacity=".987"><path fill="#e79d3c" d="m15.259 41.36c-5.683-12.189-5.937-25.312-.8-36.16-8.705 5.732-14.459 15.581-14.459 26.786 0 17.71 14.348 32.06 32.06 32.06.321 0 .627-.04.943-.048-7.351-6.186-13.544-13.631-17.742-22.641"/></g><g fill="#633d19"><path d="m48.32 47.66c0 6.277-6.571 4.131-15.536 4.131-8.964 0-16.926 2.146-16.926-4.131 0-6.272 7.267-11.357 16.231-11.357 8.967 0 16.231 5.085 16.231 11.357"/><path d="m54.613 12.878c-5.02-2.126-9.401-5.227-13.382-9.469-.831-.887-2.32-.535-2.804.582-.293.677-.162 1.43.341 1.964 4.245 4.531 8.931 7.841 14.328 10.13.233.099.476.15.717.15.848 0 1.616-.649 1.79-1.513.163-.794-.225-1.518-.99-1.844"/><path d="m9.57 12.878c5.03-2.126 9.402-5.227 13.382-9.469.832-.887 2.32-.535 2.804.582.293.677.162 1.43-.341 1.964-4.245 4.531-8.93 7.841-14.328 10.13-.233.099-.475.15-.717.15-.847 0-1.616-.649-1.79-1.513-.163-.794.226-1.518.99-1.844"/></g></svg>

<?xml version="1.0" encoding="UTF-8" standalone="no"?>
<!-- Generator: Adobe Illustrator 16.0.0, SVG Export Plug-In . SVG Version: 6.00 Build 0)  -->

<svg
   xmlns:dc="http://purl.org/dc/elements/1.1/"
   xmlns:cc="http://creativecommons.org/ns#"
   xmlns:rdf="http://www.w3.org/1999/02/22-rdf-syntax-ns#"
   xmlns:svg="http://www.w3.org/2000/svg"
   xmlns="http://www.w3.org/2000/svg"
   xmlns:sodipodi="http://sodipodi.sourceforge.net/DTD/sodipodi-0.dtd"
   xmlns:inkscape="http://www.inkscape.org/namespaces/inkscape"
   version="1.1"
   id="Layer_1"
   x="0px"
   y="0px"
   width="64px"
   height="64px"
   viewBox="0 0 64 64"
   enable-background="new 0 0 64 64"
   xml:space="preserve"
   inkscape:version="0.48.5 r10040"
   sodipodi:docname="1F627.svg"
   inkscape:export-filename="D:\TESTINGEMOJI\SVGTEST\1F627.png"
   inkscape:export-xdpi="90"
   inkscape:export-ydpi="90"><metadata
   id="metadata6305"><rdf:RDF><cc:Work
       rdf:about=""><dc:format>image/svg+xml</dc:format><dc:type
         rdf:resource="http://purl.org/dc/dcmitype/StillImage" /><dc:title></dc:title></cc:Work></rdf:RDF></metadata><defs
   id="defs6303" /><sodipodi:namedview
   pagecolor="#ffffff"
   bordercolor="#666666"
   borderopacity="1"
   objecttolerance="10"
   gridtolerance="10"
   guidetolerance="10"
   inkscape:pageopacity="0"
   inkscape:pageshadow="2"
   inkscape:window-width="640"
   inkscape:window-height="480"
   id="namedview6301"
   showgrid="false"
   inkscape:zoom="3.6875"
   inkscape:cx="32"
   inkscape:cy="32"
   inkscape:window-x="670"
   inkscape:window-y="234"
   inkscape:window-maximized="0"
   inkscape:current-layer="Layer_1" />
<g
   id="g6251">
	<g
   id="g6253">
		<g
   id="g6255">
			<path
   fill="#FBB041"
   d="M64.124,32.065c0,17.707-14.355,32.062-32.066,32.062C14.348,64.127,0,49.771,0,32.065     C0,14.354,14.348,0,32.058,0C49.769,0,64.124,14.354,64.124,32.065z"
   id="path6257" />
		</g>
	</g>
	<g
   id="g6259">
		<g
   id="g6261">
			<path
   fill="#FFFFFF"
   d="M27.437,23.229c0,5.395-2.915,9.759-6.515,9.759c-3.604,0-6.519-4.364-6.519-9.759     c0-5.39,2.915-9.758,6.519-9.758C24.521,13.471,27.437,17.839,27.437,23.229z"
   id="path6263" />
		</g>
	</g>
	<g
   id="g6265">
		<g
   id="g6267">
			<path
   fill="#FFFFFF"
   d="M49.487,23.229c0,5.395-2.915,9.759-6.515,9.759s-6.519-4.364-6.519-9.759     c0-5.39,2.919-9.758,6.519-9.758S49.487,17.839,49.487,23.229z"
   id="path6269" />
		</g>
	</g>
	<g
   id="g6271">
		<g
   id="g6273">
			<ellipse
   fill="#25333A"
   cx="20.92"
   cy="23.229"
   rx="4.216"
   ry="5.114"
   id="ellipse6275" />
		</g>
	</g>
	<g
   id="g6277">
		<g
   id="g6279">
			<ellipse
   fill="#25333A"
   cx="42.969"
   cy="23.229"
   rx="4.218"
   ry="5.114"
   id="ellipse6281" />
		</g>
	</g>
	<g
   opacity="0.9866"
   id="g6283">
		<g
   id="g6285">
			<g
   id="g6287">
				<path
   fill="#E79D3C"
   d="M15.259,41.359C9.576,29.17,9.322,16.047,14.459,5.2C5.754,10.932,0,20.781,0,31.986      c0,17.71,14.348,32.062,32.058,32.062c0.321,0,0.627-0.04,0.943-0.048C25.65,57.814,19.457,50.369,15.259,41.359z"
   id="path6289" />
			</g>
		</g>
	</g>
	<g
   id="g6291">
		<g
   id="g6293">
			<path
   fill="#633D19"
   d="M48.322,47.66c0,6.277-6.571,4.131-15.536,4.131c-8.964,0-16.926,2.146-16.926-4.131     c0-6.272,7.267-11.357,16.231-11.357C41.058,36.303,48.322,41.388,48.322,47.66z"
   id="path6295" />
		</g>
	</g>
	<path
   fill="#633D19"
   d="M54.613,12.878c-5.025-2.126-9.401-5.227-13.382-9.469c-0.831-0.887-2.32-0.535-2.804,0.582   c-0.293,0.677-0.162,1.43,0.341,1.964c4.245,4.531,8.931,7.841,14.328,10.13c0.233,0.099,0.476,0.15,0.717,0.15   c0.848,0,1.616-0.649,1.79-1.513C55.766,13.928,55.378,13.204,54.613,12.878z"
   id="path6297" />
	<path
   fill="#633D19"
   d="M9.57,12.878c5.025-2.126,9.402-5.227,13.382-9.469c0.832-0.887,2.32-0.535,2.804,0.582   c0.293,0.677,0.162,1.43-0.341,1.964c-4.245,4.531-8.93,7.841-14.328,10.13c-0.233,0.099-0.475,0.15-0.717,0.15   c-0.847,0-1.616-0.649-1.79-1.513C8.417,13.928,8.806,13.204,9.57,12.878z"
   id="path6299" />
</g>
</svg>
